X: 57
T: No_47_"The_Wolves_Are_Howling".krn
N: Derived from No_47_"The_Wolves_Are_Howling".krn
%%abc-version 2.0
%%abcx-abcm2ps-target-version 5.9.1 (29 Sep 2008)
%%abc-creator hum2abc beta
%%abcx-conversion-date 2019/03/15 08:36:13
%%humdrum-veritas 1238238548
%%humdrum-veritas-data 1479815382
%%linebreak <none>
%%barnumbers 0
L: 1/8
M: 3/4
K: B clef=bass
[K:clef=bass][M:3/4]z4D3/D/ ]|:  
D3D D3/C/ ||  
[M:2/4]CB,/ z/ C3/D/ | 
D2-DC | 
DD/D/ D/C/ z/ D/ | 
DC B, z/ B,/ ||  
[M:3/4]CC/C/ C/B,/B,/A,/ B, z ||  
[M:2/4]C3/B,/ B,A, | 
(3CB,A, B,3/B,/ | 
(3B,G,F, B,B, ||  
[M:3/4]B,B,/ z/z2D3/D/ :|]  
[M:2/4]B,B,/ z/z2 |]  



